X:139
T:The Wakeup Call
M:6/8
L:1/8
C:© Paul Gitlitz 2000
R:Jig
B:Giblitz Fancy
N:Written while half asleep after an unexpected call woke me from composing in my dreams
K:Gm
A,B,|:"Cm"CB,C "Bb"DEF|"Cm"EDC- CG,B,|CDE CD<C|"Gm"B,3- B,G,B,|!
"Cm"CB,C "Bb"DEF|"Eb"EDB,- "Gm"B,G,A,|B,CD G,B,<D|1"Cm"C3 zA,B,:|2"Cm"C3 zGA!
"Gm"BcB "Cm"cde|"Bb"fdB- "Gm"BGA|BGd GB<d|"Cm"c3 zGA|!
"Gm"BAB "Cm"cdg|"Bb"fdB- "Gm"BGA|"Bb"BFA "D"GF<A|1"Gm"G3zGA:|2"Gm"G3-G|]
